X:1
T:Title
%%score { ( 1 4 ) | ( 2 3 ) }
L:1/8
Q:1/4=100
M:4/4
K:D
V:1 treble nm="Grand Piano"
V:4 treble 
V:2 bass 
V:3 bass 
V:1
 [FA]2 [DF]>[EG] [FA]2 [Fd]2 | [Ac]2 .[B,GB]2 [DFA]2 [A,DF]2 | %2
w: T.~H.~Ervin * * * *||
 [A,EG]2 [A,CA]>[A,CG] [A,DF]2 [^G,D]2 | [A,CE]2 C2 D2 [CGA]2 | [DFA]2 [A,DF]>[A,EG] [DFA]2 [Fd]2 | %5
w: |||
 [Ac]2 .[B,GB]2 [DFA]2 F2 | E2 d>B [Ee]2 [CA]>[Fd] | [Ec]2 [DB]2 [CA]4 | B3- B/^A/ B>c d>B | %9
w: ||||
 c2 d2 e2 c2 | d2 [D^Gc]2 [CA]2 [B,FB]2 | [B,E^G]2 [A,^DF]2 [^G,E]4 | [A,CE]2 [A,EA]>B c2 [Ge]2 | %13
w: ||||
 [Fe]2 [Fd]4 A>B | c2 e>d c2 B2 | B6 [CA]2 | [FA]2 [DF]>[EG] [FA]2 [Fd]2 | %17
w: ||||
 [Ac]2 .[B,GB]2 [DFA]2 [A,DF]2 | [A,EG]2 [A,CA]>[A,CG] [A,DF]2 [^G,D]2 | [A,CE]2 C2 D2 [CGA]2 | %20
w: |||
 [DFA]2 [A,DF]>[A,EG] [DFA]2 [Fd]2 | [Ac]2 .[B,GB]2 [DFA]2 [Fd]2 | d2 c>B [DFA]2 d2 | %23
w: |||
 e2 c2 [Fd]4 |] %24
w: |
V:2
 [D,D]2 [D,A,]2 [D,D]2 [D,A,]2 | G,A, z C D,2 D,2 | C,2 A,,>A,, D,2 B,,2 | A,,2 G,2 F,2 E,2 | %4
 D,2 D,>D, D,2 [D,A,]2 | G,A, z C D,2 [D,A,D]2 | [E,^G,B,]2 [G,E]->[D,G,E] [C,A,]2 F,>D, | %7
 [E,A,]2 [E,^G,]2 [A,,A,]4 | [E,^G,E]3- [E,G,E]/[E,=G,E]/ [E,^G,E]>[E,A,E] [E,B,E]>[E,G,E] | %9
 [A,E]2 [A,B,E]2 [A,CE]2 [A,E]2 | [^G,B,E]2 z z/[K:treble] B/[K:bass] F,2 z z/ A/ | %11
 E,2 B,,2 z2 D2 | A,,2 C,>[E,^G,E] [A,E]2 [C,A,]2 | [D,A,]2 [D,A,]4 [D,A,]2 | %14
 [E,A,E]2 [E,CE]>[E,B,E] [E,A,E]2 [E,^G,D]2 | [E,^G,D]6 [A,,A,]2 | [D,A,]2 [D,A,]2 [D,D]2 [D,A,]2 | %17
 G,A, z C D,2 D,2 | C,2 A,,>A,, D,2 B,,2 | A,,2 G,2 F,2 E,2 | D,2 D,>D, D,2 [D,A,]2 | %21
 G,A, z C D,2 [D,=C]2 | z2 C2 z4 | [G,B,G]2[K:bass] [A,E]2 [D,A,]4 |] %24
V:3
 x8 | D,2 D,2 z4 | x8 | x8 | x8 | D,2 D,2 z4 | z2 E,2 z4 | x8 | x8 | x8 | %10
 z2 E,2[K:treble][K:bass] z2 ^D,2 | z4 E,4 | x8 | x8 | x8 | x8 | x8 | D,2 D,2 z4 | x8 | x8 | x8 | %21
 D,2 D,2 z4 | [G,B,G]2 [G,G]->[G,DG] D,2 [B,DF]2 | x2[K:bass] x6 |] %24
V:4
 x8 | x8 | x8 | z2 [A,A]4 z2 | x8 | x8 | z4 z2 A,2 | x8 | x8 | x8 | x8 | x8 | x8 | z4 z2 =F2 | x8 | %15
 x8 | x8 | x8 | x8 | z2 [A,A]4 z2 | x8 | x8 | x8 | x8 |] %24

